SF_Symbols/rectangle.stack.fill.svg

<?xml version="1.0" encoding="UTF-8"?>
<svg xmlns="http://www.w3.org/2000/svg" xmlns:xlink="http://www.w3.org/1999/xlink" width="24" height="24" viewBox="0 0 24 24" version="1.1">
<g id="surface1">
<path style=" stroke:none;fill-rule:nonzero;fill:rgb(100%,100%,100%);fill-opacity:1;" d="M 4.457031 23.800781 L 19.53125 23.800781 C 20.578125 23.800781 21.367188 23.539062 21.894531 23.011719 C 22.429688 22.484375 22.699219 21.703125 22.699219 20.667969 L 22.699219 10.1875 C 22.699219 9.152344 22.429688 8.375 21.894531 7.855469 C 21.367188 7.328125 20.578125 7.0625 19.53125 7.0625 L 4.457031 7.0625 C 3.402344 7.0625 2.609375 7.328125 2.082031 7.855469 C 1.554688 8.375 1.292969 9.152344 1.292969 10.1875 L 1.292969 20.667969 C 1.292969 21.707031 1.554688 22.488281 2.082031 23.011719 C 2.609375 23.539062 3.402344 23.800781 4.457031 23.800781 Z M 3.28125 5.386719 L 20.71875 5.386719 C 20.636719 4.914062 20.46875 4.550781 20.21875 4.300781 C 19.976562 4.046875 19.59375 3.917969 19.074219 3.917969 L 4.925781 3.917969 C 4.40625 3.917969 4.019531 4.046875 3.769531 4.300781 C 3.519531 4.550781 3.359375 4.914062 3.28125 5.386719 Z M 5.425781 2.5 L 18.574219 2.5 C 18.539062 2.054688 18.394531 1.722656 18.144531 1.5 C 17.894531 1.269531 17.527344 1.15625 17.042969 1.15625 L 6.949219 1.15625 C 6.46875 1.15625 6.101562 1.269531 5.84375 1.5 C 5.59375 1.722656 5.453125 2.054688 5.425781 2.5 Z M 5.425781 2.5 "/>
</g>
</svg>

<svg xmlns="http://www.w3.org/2000/svg" width="24" height="24"><path style="stroke:none;fill-rule:nonzero;fill:#fff;fill-opacity:1" d="M4.457 23.8h15.074c1.047 0 1.836-.26 2.364-.788.535-.528.804-1.309.804-2.344v-10.48c0-1.036-.27-1.813-.804-2.333-.528-.527-1.317-.793-2.364-.793H4.457c-1.055 0-1.848.266-2.375.793-.527.52-.789 1.297-.789 2.332v10.481c0 1.039.262 1.82.789 2.344.527.527 1.32.789 2.375.789ZM3.281 5.388H20.72c-.082-.473-.25-.836-.5-1.086-.242-.254-.625-.383-1.145-.383H4.926c-.52 0-.906.129-1.156.383-.25.25-.41.613-.489 1.086ZM5.426 2.5h13.148c-.035-.445-.18-.777-.43-1-.25-.23-.617-.344-1.101-.344H6.949c-.48 0-.847.114-1.105.344-.25.223-.39.555-.418 1Zm0 0"/></svg>
